public/images/facebook.svg

<svg fill="none" height="18" viewBox="0 0 18 18" width="18" xmlns="http://www.w3.org/2000/svg"><path d="m17.7188 9.05273c0-4.8164-3.9024-8.718746-8.7188-8.718746-4.81641 0-8.71875 3.902346-8.71875 8.718746 0 4.35937 3.16406 7.98047 7.34766 8.61327v-6.082h-2.21485v-2.53127h2.21485v-1.89843c0-2.17969 1.30078-3.41016 3.26949-3.41016.9844 0 1.9688.17578 1.9688.17578v2.14453h-1.0899c-1.0898 0-1.4414.66797-1.4414 1.3711v1.61718h2.4258l-.3867 2.53127h-2.0391v6.082c4.1836-.6328 7.3829-4.2539 7.3829-8.61327z" fill="#a37a56"/></svg>

<svg width="18" height="18" viewBox="0 0 18 18" fill="none" xmlns="http://www.w3.org/2000/svg">
<path d="M17.7188 9.05273C17.7188 4.23633 13.8164 0.333984 9 0.333984C4.18359 0.333984 0.28125 4.23633 0.28125 9.05273C0.28125 13.4121 3.44531 17.0332 7.62891 17.666V11.584H5.41406V9.05273H7.62891V7.1543C7.62891 4.97461 8.92969 3.74414 10.8984 3.74414C11.8828 3.74414 12.8672 3.91992 12.8672 3.91992V6.06445H11.7773C10.6875 6.06445 10.3359 6.73242 10.3359 7.43555V9.05273H12.7617L12.375 11.584H10.3359V17.666C14.5195 17.0332 17.7188 13.4121 17.7188 9.05273Z" fill="#A37A56"/>
</svg>
